X: 20534
Q: "Slow."
M: C
L: 1/8
K: G
g |\
g2fe d2e (f/g/) | BB {d}cA G2zg |\
g2fe d2 (ef/g/) | BB {d}cA G2z |]\
(d/c/) |\
g>f (a/g/).f/.e/ d2 (d/^c/e/).=c/ | B2B2 {d}cA G2z |]


